X: 19718
T: Jenny Nettle's Fancy
R: reel
M: 4/4
K: Bminor
|:BAAB dAFA|BAAB defd|BAAB dAFA|defd e2d2:|
dfaf bfaf|dfaf g2fe|dfaf bfaf|defd e2d2|
dfaf bfaf|dfaf g2fg|afef dBAB|fafd e2d2||

